shader_type spatial;
render_mode blend_add;

uniform bool active = false; // Sets pixels to flash color when true
uniform vec4 flash_color: source_color = vec4(1.0,1.0,1.0,1.0); // The color to use when active
uniform sampler2D tex: source_color; // A copy of the texture for the Sprite3D or AnimatedSprite3D 


void fragment() {
	vec4 col = texture(tex,UV);
	vec4 set_col = col;
	if(active == true) {
		set_col = flash_color;
	}
	ALBEDO = vec3(set_col.r,set_col.g,set_col.b);
	//ALPHA = col.a;
}